src/lib/packages/icons/src/assets/line/delivery-cart.svg

<svg width="24" height="24" viewBox="0 0 24 24" fill="none" xmlns="http://www.w3.org/2000/svg">
<path d="M9.47499 12.852C9.84599 14.959 11.02 16.049 12.893 16.049C13.21 16.049 13.548 16.018 13.905 15.954L17.539 15.313C18.785 15.094 19.648 14.618 20.179 13.86C20.71 13.101 20.862 12.128 20.642 10.882L20.001 7.248C19.781 6.003 19.307 5.14 18.548 4.608C17.789 4.077 16.8161 3.92599 15.5711 4.14599L11.937 4.787C10.692 5.006 9.82804 5.48199 9.29604 6.24099C8.76604 6.99899 8.614 7.973 8.834 9.218L9.47499 12.852ZM10.525 7.102C10.816 6.686 11.3631 6.41199 12.1961 6.26499L15.83 5.62399C16.111 5.57399 16.367 5.55 16.598 5.55C17.052 5.55 17.411 5.646 17.687 5.839C18.103 6.131 18.3761 6.67699 18.5241 7.50999L19.1651 11.144C19.3111 11.977 19.241 12.584 18.95 13C18.659 13.416 18.1121 13.689 17.2791 13.837L13.645 14.478C11.995 14.767 11.243 14.239 10.952 12.592L10.3111 8.95799C10.1641 8.12499 10.234 7.517 10.525 7.102ZM20.87 16.042L10.499 17.868C10.165 17.134 9.51802 16.58 8.72902 16.361L6.64907 4.52099C6.38607 3.03099 4.94898 2.033 3.46498 2.292L2.87502 2.39199C2.46602 2.46099 2.19101 2.849 2.26101 3.257C2.32901 3.665 2.72002 3.938 3.12502 3.871L3.71901 3.77C4.39801 3.653 5.05302 4.10499 5.17202 4.78199L7.20998 16.381C6.07998 16.723 5.25002 17.762 5.25002 19.002C5.25002 20.519 6.48302 21.752 8.00002 21.752C9.39602 21.752 10.539 20.703 10.714 19.354L21.13 17.521C21.538 17.449 21.8111 17.06 21.7381 16.652C21.6671 16.242 21.279 15.969 20.87 16.042ZM8.00002 20.25C7.31102 20.25 6.75002 19.689 6.75002 19C6.75002 18.311 7.31102 17.75 8.00002 17.75C8.68902 17.75 9.25002 18.311 9.25002 19C9.25002 19.689 8.68902 20.25 8.00002 20.25Z" fill="currentColor"/>
</svg>

<svg xmlns="http://www.w3.org/2000/svg" width="24" height="24" fill="none"><path fill="currentColor" d="M9.475 12.852c.371 2.107 1.545 3.197 3.418 3.197.317 0 .655-.031 1.012-.095l3.634-.641c1.246-.219 2.109-.695 2.64-1.453.531-.759.683-1.732.463-2.978l-.641-3.634c-.22-1.245-.694-2.108-1.453-2.64-.759-.531-1.732-.682-2.977-.462l-3.634.641c-1.245.219-2.109.695-2.641 1.454-.53.758-.682 1.732-.462 2.977l.641 3.634Zm1.05-5.75c.291-.416.838-.69 1.671-.837l3.634-.641c.281-.05.537-.074.768-.074.454 0 .813.096 1.089.289.416.292.69.838.837 1.671l.641 3.634c.146.833.076 1.44-.215 1.856-.291.416-.838.689-1.67.837l-3.635.641c-1.65.289-2.402-.239-2.693-1.886l-.64-3.634c-.148-.833-.078-1.441.213-1.856Zm10.345 8.94-10.371 1.826a2.75 2.75 0 0 0-1.77-1.507l-2.08-11.84a2.76 2.76 0 0 0-3.184-2.229l-.59.1a.75.75 0 1 0 .25 1.479l.594-.101a1.258 1.258 0 0 1 1.453 1.012L7.21 16.381a2.745 2.745 0 0 0-1.96 2.621A2.752 2.752 0 0 0 8 21.752a2.744 2.744 0 0 0 2.714-2.398l10.416-1.833a.75.75 0 0 0 .608-.869.747.747 0 0 0-.868-.61ZM8 20.25c-.689 0-1.25-.561-1.25-1.25s.561-1.25 1.25-1.25 1.25.561 1.25 1.25-.561 1.25-1.25 1.25Z"/></svg>
